X: 48
T: Akıbet Viran
C: Numan Ağa
O: Turkey
F: http://compmusic.upf.edu/node/140
N: nihavent--sarki--agiraksak--akibet_viran--numan_aga
N: makam= nihavent
N: form= sarki
N: usul= agiraksak = 9/4
M: 9/4
L: 1/16
K: C _B _e  
Q: 1/4=60
%%MIDI tuningsystem comma53
z8z2G4e2  | d3^cB4c4d4  | e2f2edd8d2  | \
w:   |   |   | 
d4dcc3ed2c2B2  | 
w:   | 
ABdcBAG4z2G4  | A2B4^c2d2e3dc4d2e2^f3efef2ed  | 
w:   |   | 
^c2d6d6cB  | ^c2d2e2f2edd6  | A2B2^c2d8z2  | \
w:   |   |   | 
d4a2g3^fe4f4g4a4bagfe2  | 
w:   | 
d2z2f4f2f2e2d2  | c2c2e2dccBBAB4  | c2d4cBABc4BA  | 
w:   |   |   | 
G3ed2c2c2B4A2  | G2^FGA6c2B6c2BAA3GBAGFG6d2^c2e2d8z2d4a2g3^fe4f4g4a4ba  | 
w:   |   | 
g^fe2d2z2=f4f2f2  | e2d2c2c2e2dccBBA  | \
w:   |   | 
B4c2d4cBABc4BAG3ed2c2c2B4A2G2^FGA6c2  | 
w:   | 
B6c2BAA3GBA  | G^FG6g2^f2a2g8z2g4a2b3ag2a2f4a2g3f  | 
w:   |   | 
^f=eefg8z2b4b2a2c'2b2a2aggf  | g8^f4g4  | \
w:   |   | 
g2b2a2g2^f2e2f2e2  | 
w:   | 
d2c'6b2b2a2a8a6b2ag  | a2b4c'2baagg^fg4c'2baa8z2  | 
w:   |   | 
g2^f2g2a8g4a4b4d'^c'bag2  | ^f2f2g4a2b2^c'2b2  | \
w:   |   | 
a2g2^f2g8f4g4g2b2a2g2f2  | 
w:   | 
e2^f2e2d2a2g2f2e2  | ^feedd8d6^cBc2d2e2=f2edd6c2B2c2d8z2d4a2g3^fe4f4g4a4ba  | 
w:   |   | 
g^fe2d2z2=f4f2f2  | e2d2c2c2e2dccBBA  | \
w:   |   | 
B4c2d4cBABc4BAG3ed2c2c2B4A2G2^FGA3=FBAG^F  | 
w:   | 
G3DE2^F2G4G3E  | D4G3AB2^c2d^fed  | ^c2e2d8z4  | \
w:   |   |   | 
e3d^c4d3e^f2g2  | 
w:   | 
abag^f2a2g8  | g2a2b3ag2a2b2c'2  | d'2c'2b3a(3g2^f2g2a8z4=f3edefg  | 
w:   |   |   | 
f2e2d2c2B3AAGG^F  | G3edcBAG4G3E  | D4G3AB2^c2d^fed  | 
w:   |   |   | 
^c2e2d8z4  | e3d^c4d3e^f2g2  | abag^f2a2g8  | \
w:   |   |   | 
g2a2b3ag2a2b2c'2  | 
w:   | 
d'2c'2b3a(3g2^f2g2a8z4=f3edefg  | \
w:   | 
f2e2d2c2B3AAGG^F  | 
w:   | 
G8z4|
w:   | 


